public/files/perm/themes/base/flux/icons/follow_the_signs.svg

<svg enable-background="new 0 0 24 24" fill="#282573" height="40" viewBox="0 0 24 24" width="40" xmlns="http://www.w3.org/2000/svg"><path d="m0 0h24v24h-24z" fill="none"/><path d="m9.5 5.5c1.1 0 2-.9 2-2s-.9-2-2-2-2 .9-2 2 .9 2 2 2zm-3.75 3.4-2.75 14.1h2.1l1.75-8 2.15 2v6h2v-7.55l-2.05-2.05.6-3c1.3 1.6 3.25 2.6 5.45 2.6v-2c-1.85 0-3.45-1-4.35-2.45l-.95-1.6c-.35-.6-1-.95-1.7-.95-.25 0-.5.05-.75.15l-5.25 2.15v4.7h2v-3.35zm7.25-6.9v7h3.75v14h1.5v-14h3.75v-7zm5.01 6v-1.75h-3.51v-1.5h3.51v-1.75l2.49 2.5z"/></svg>

<svg xmlns="http://www.w3.org/2000/svg" enable-background="new 0 0 24 24" height="40px" viewBox="0 0 24 24" width="40px" fill="#282573"><rect fill="none" height="24" width="24"/><path d="M9.5,5.5c1.1,0,2-0.9,2-2s-0.9-2-2-2s-2,0.9-2,2S8.4,5.5,9.5,5.5z M5.75,8.9L3,23h2.1l1.75-8L9,17v6h2v-7.55L8.95,13.4 l0.6-3C10.85,12,12.8,13,15,13v-2c-1.85,0-3.45-1-4.35-2.45L9.7,6.95C9.35,6.35,8.7,6,8,6C7.75,6,7.5,6.05,7.25,6.15L2,8.3V13h2 V9.65L5.75,8.9 M13,2v7h3.75v14h1.5V9H22V2H13z M18.01,8V6.25H14.5v-1.5h3.51V3l2.49,2.5L18.01,8z"/></svg>
